X: 613
T: St Patrick Was a Gentleman.
T: bu.d duine uasal noa.m .padraic.
R:air
N:"Lively."
B:O'Neill's 613
Z:Transcribed by John Walsh (walsh@math.ubc.ca)
M:2/4
L:1/8
%Q:110
K:A
e|cA AB|cd ec|BG GB|dB2 d|
cA AB|cd eg|ae ed|cA2||
g|ag ab|ae ef|gG GB|dB2 g|
ag ab|ae ef|gG GB|dB2 (He/d/)|
cA AB|cd ec|BG GB|dB2 e|
cA AB|cd eg|ae ed|cA2||


